img/coffeemachine.svg

<svg width="100" height="100" viewBox="0 0 100 100" fill="none" xmlns="http://www.w3.org/2000/svg">
<path d="M89.4 85.0996H86.8V29.4996C86.8 26.3996 84.2 23.8996 80.9 23.8996H69.4V20.4996C69.4 9.79961 60.7 1.09961 50 1.09961C39.3 1.09961 30.6 9.79961 30.6 20.4996V23.8996H19.1C15.9 23.8996 13.2 26.3996 13.2 29.4996V85.0996H10.6C6.7 85.0996 3.5 88.2996 3.5 92.1996V95.4996C3.5 97.3996 5 98.8996 6.9 98.8996H93.2C95.1 98.8996 96.6 97.3996 96.6 95.4996V92.1996C96.5 88.2996 93.3 85.0996 89.4 85.0996ZM34.6 20.4996C34.6 11.9996 41.5 5.09961 50 5.09961C58.5 5.09961 65.4 11.9996 65.4 20.4996V39.5996C65.4 40.4996 64.7 41.1996 63.8 41.1996H36.2C35.3 41.1996 34.6 40.4996 34.6 39.5996V20.4996ZM17.3 29.4996C17.3 28.5996 18.1 27.8996 19.2 27.8996H30.7V39.5996C30.7 42.6996 33.2 45.1996 36.3 45.1996H48V49.9996C48 51.0996 48.9 51.9996 50 51.9996C51.1 51.9996 52 51.0996 52 49.9996V45.1996H63.8C66.9 45.1996 69.4 42.6996 69.4 39.5996V27.8996H80.9C81.9 27.8996 82.8 28.5996 82.8 29.4996V85.0996H17.3V29.4996ZM92.5 94.8996H7.5V92.2996C7.5 90.5996 8.9 89.1996 10.6 89.1996H89.4C91.1 89.1996 92.5 90.5996 92.5 92.2996V94.8996V94.8996Z" fill="white"/>
<path d="M74.1998 60.9996C73.7998 60.4996 73.2998 60.2996 72.6998 60.2996H65.2998L65.4998 58.4996C65.5998 57.5996 65.2998 56.6996 64.6998 56.0996C64.0998 55.3996 63.1998 55.0996 62.3998 55.0996H36.9998C36.0998 55.0996 35.2998 55.4996 34.6998 56.0996C34.0998 56.7996 33.7998 57.5996 33.8998 58.4996L35.3998 75.9996C35.7998 80.0996 39.1998 83.2996 43.2998 83.2996H55.9998C59.9998 83.2996 63.1998 80.4996 63.7998 76.5996H70.2998C71.2998 76.5996 72.0998 75.8996 72.2998 74.9996L74.5998 62.6996C74.6998 62.0996 74.5998 61.4996 74.1998 60.9996ZM59.8998 75.7996C59.6998 77.7996 57.9998 79.3996 55.9998 79.3996H43.2998C41.1998 79.3996 39.5998 77.8996 39.3998 75.7996L37.9998 59.0996H61.3998L59.8998 75.7996ZM68.6998 72.5996H64.1998L64.8998 64.2996H70.2998L68.6998 72.5996Z" fill="white"/>
</svg>

<svg xmlns:x="http://ns.adobe.com/Extensibility/1.0/" xmlns:i="http://ns.adobe.com/AdobeIllustrator/10.0/" xmlns:graph="http://ns.adobe.com/Graphs/1.0/" xmlns="http://www.w3.org/2000/svg" xmlns:xlink="http://www.w3.org/1999/xlink" version="1.1" x="0px" y="0px" viewBox="0 0 100 100" style="enable-background:new 0 0 100 100;max-width:100%" xml:space="preserve" height="100%"><switch style="" fill="currentColor"><foreignObject requiredExtensions="http://ns.adobe.com/AdobeIllustrator/10.0/" x="0" y="0" width="1" height="1" style="" fill="currentColor"></foreignObject><g i:extraneous="self" style="" fill="currentColor"><path d="M89.4,85.1h-2.6V29.5c0-3.1-2.6-5.6-5.9-5.6H69.4v-3.4C69.4,9.8,60.7,1.1,50,1.1S30.6,9.8,30.6,20.5v3.4H19.1    c-3.2,0-5.9,2.5-5.9,5.6v55.6h-2.6c-3.9,0-7.1,3.2-7.1,7.1v3.3c0,1.9,1.5,3.4,3.4,3.4h86.3c1.9,0,3.4-1.5,3.4-3.4v-3.3    C96.5,88.3,93.3,85.1,89.4,85.1z M34.6,20.5C34.6,12,41.5,5.1,50,5.1c8.5,0,15.4,6.9,15.4,15.4v19.1c0,0.9-0.7,1.6-1.6,1.6H36.2    c-0.9,0-1.6-0.7-1.6-1.6V20.5z M17.3,29.5c0-0.9,0.8-1.6,1.9-1.6h11.5v11.7c0,3.1,2.5,5.6,5.6,5.6H48v4.8c0,1.1,0.9,2,2,2    s2-0.9,2-2v-4.8h11.8c3.1,0,5.6-2.5,5.6-5.6V27.9h11.5c1,0,1.9,0.7,1.9,1.6v55.6H17.3V29.5z M92.5,94.9h-85v-2.6    c0-1.7,1.4-3.1,3.1-3.1h78.8c1.7,0,3.1,1.4,3.1,3.1V94.9z" style="" fill="currentColor"></path><path d="M74.2,61c-0.4-0.5-0.9-0.7-1.5-0.7h-7.4l0.2-1.8c0.1-0.9-0.2-1.8-0.8-2.4c-0.6-0.7-1.5-1-2.3-1H37c-0.9,0-1.7,0.4-2.3,1    c-0.6,0.7-0.9,1.5-0.8,2.4l1.5,17.5c0.4,4.1,3.8,7.3,7.9,7.3H56c4,0,7.2-2.8,7.8-6.7h6.5c1,0,1.8-0.7,2-1.6l2.3-12.3    C74.7,62.1,74.6,61.5,74.2,61z M59.9,75.8c-0.2,2-1.9,3.6-3.9,3.6H43.3c-2.1,0-3.7-1.5-3.9-3.6l-1.4-16.7h23.4L59.9,75.8z     M68.7,72.6h-4.5l0.7-8.3h5.4L68.7,72.6z" style="" fill="currentColor"></path></g></switch></svg>
